X: 198
T: Song of Sitting Bull (a)
C: Teton Sioux band 1911-1914
N: Derived from sioux193.krn
O: South Dakota, U.S.A.
N: Teton Sioux Music by Frances Densmore, 1918
Z: transcribed to **kern format by Craig Sapp
L: 1/8
M: 3/4
Q: 1/4=58
K: Gb clef=bass
%%linebreak <none>
E< E E E E/ B,3/ [I:setbarnb 2]| 
E E E/ B,/ B, B,/ A,3/ | 
B, E E/ B,/ B, B,/ A,/ A, | 
B, B, B,/ G,/ G, E, E, | 
G, E, B,/ B,/ B, B,/ A,/ A, ||  
[M:2/4]A, A, G, G, | 
G, G, E, E,3// E,// | 
E,4 | 
E,4 ||  
[M:3/4]B,/ G,/ G, B,< G, G, G, | 
[M:2/4]E< B, E B, | 
E< B, B, (B,// A,//) A,/ ||  
[M:3/4]B, B, G,> G, E,3/ E,/ ||  
[M:2/4](G,/ E,/) E, B, B, | 
A,2(B,/ A,/) A, | 
A,< G, G, G, | 
G,< E, E, E, | 
E,4 | 
E,2z2 |]  



